X:1
T:Title
%%score { ( 1 3 ) | ( 2 4 ) }
L:1/8
M:6/8
K:F
V:1 treble nm="Grand Piano"
V:3 treble 
V:2 bass 
V:4 bass 
V:1
 z3 z2[Q:1/4=87] C | F<FF FEF | [EG]2 E C2 C | [EG]<[EG][EG] [EG][DF][EG] | A3- A2 C | AAA A_A=A | %6
 [DB]2 [Fc] [Fd]2 [Fd] | z3 .[DB]3 |[M:5/8] [A,F]-[A,F]- [A,F]3 |[M:1/8] [A,CF] | %10
[M:3/4] [EG]<[EG] [EG][EG] [DF][EG] | [FA]<A A A2 [CFA] | [B,FB][Fc] [Fd][CFc] [CEB][CFA] | G6 | %14
 [B,EG]<[B,EG] [B,EG][B,EG] [A,DF][G,EG] | z2 z .A3 | =B<B Ge/[^Fe]/- [Fe][=Fd] | %17
[M:13/16] [Ec]/-[Ec]/-[Ec]/-[Ec]/-[Ec]/-[Ec]/-[Ec]/-[Ec]-<[Ec] z |[M:3/4] F<F FF EF | %19
 [EG]2 E C2 C | [EG]<[EG] [EG][EG] [DF][EG] | A4- AC | AA AA _A=A | [DB]2 [Fc] [Fd]2 [Fd] | %24
 z2 z [DB] z2 |[M:13/8] [A,F]-[A,F]- [A,F]3 z z z z z z z2 |] %26
V:2
 z3 z2 [F,A,] | [F,A,C]<[F,A,C][F,A,C] [A,C][G,B,][F,A,C] | [C,B,]2 [C,B,C] [C,B,]2 [C,B,] | %3
 [C,B,]<[C,B,][C,B,] [C,B,]2 [C,B,] | [F,A,F]3- [F,A,F]2 [_E,G,] | %5
 [D,^F,D][D,F,D][D,F,D] [D,F,D][D,F,D][D,F,D] | [G,,G,]2 [A,,F,] [B,,B,]2 [=B,,_A,] | %7
 [C,G,]C,C, z CC, |[M:5/8] F,-F,- F,3 |[M:1/8] F, |[M:3/4] [C,C]<[C,C] [C,C] [C,C]2 [C,C] | %11
 z/[K:treble] F3/2 F F2[K:bass] _E, | D,[C,A,] [B,,B,]A,, G,,F,, | C,2 D,/D,/ C,2 C, | %14
 C,<C, C,C, C,C, | [F,F]<[F,A,F] [F,=B,F][F,C] [E,^C][D,D] | %16
 [G,DF]<[G,DF] [G,=B,F][K:bass][G,,B,G]/[G,,A,]/- [G,,A,][G,,B,] | %17
[M:13/16] .C3/2 z/ z/ z/ z/ z/ z/ z/ z/ z |[M:3/4] [F,A,C]<[F,A,C] [F,A,C][A,C] [G,B,][F,A,C] | %19
 [C,B,]2 [C,B,C] [C,B,]2 [C,B,] | [C,B,]<[C,B,] [C,B,] [C,B,]2 [C,B,] | [F,A,F]4- [F,A,F][_E,G,] | %22
 [D,^F,D][D,F,D] [D,F,D][D,F,D] [D,F,D][D,F,D] | [G,,G,]2 [A,,F,] [B,,B,]2 [=B,,_A,] | %24
 [C,G,]C, .C,2 CC, |[M:13/8] F,-F,- F,3 z z z z z z z2 |] %26
V:3
 x6 | x6 | x6 | x6 | x6 | x6 | x6 | [Ec][B,EG][CEA] E-[EA][B,EG] |[M:5/8] x5 |[M:1/8] x | %10
[M:3/4] x6 | x6 | x6 | [CE]2 [=B,F]/[B,F]/ [CE]2 [CEG] | x6 | A<A .A2 G[FA] | x6 | %17
[M:13/16] z DCB,G,3/2C |[M:3/4] x6 | x6 | x6 | x6 | x6 | x6 | [Ec][B,EG] [CEA]E- [EA][B,EG] | %25
[M:13/8] x13 |] %26
V:4
 x6 | x6 | x6 | x6 | x6 | x6 | x6 | z3 .C,3 |[M:5/8] x5 |[M:1/8] x |[M:3/4] x6 | %11
 [F,C]6[K:treble][K:bass] | x6 | x6 | x6 | x6 | x3[K:bass] x3 | %17
[M:13/16] C,/-C,/-C,/-C,/-C,/-C,/-C,/-C,-<C,[E,B,] |[M:3/4] x6 | x6 | x6 | x6 | x6 | x6 | %24
 z2 z .C,3 |[M:13/8] x13 |] %26

